X: 1
T: Lumberland Rant
R: jig
M: 6/8
L: 1/8
K: Gmaj
|:BA|G2 DG B,DG,B,|CA,CE D2GF|EGce dBAG|F2A2 A2BA|
G2 DG B,DG,B,|CA,CE D2GF|EGce dBGE|D2G2 G2:|
|:Bc|dBAG BGBc|d2g2 g2ed|cded cBAG|F2A2 A2Bc|
dBAG BGBc|BGBd e2gf|ecdB cAFE|D2G2 G2:|

